X: 78
T: Ca la noi la Falticeni
O: Romania
M: 2/4
L: 1/8
Q: 1/4=200
K: Em
%%MIDI program 41
|:e2 e2|E2 E2 |(3FGA GF|EG B2 |\
  e2 e2|E2 E2 |(3FGA GF|E2 z2 :|
|:dd dB|cA B2 | dd dB  |cA B2 |\
  dd Dd|G2 z2 :|
|:ABcB |AGB2  |cBAG    |ABc2  |\
  ABcB |AGB2  |dd DD   |G2 z2 :|



